X: 1
T:Haste to the Wedding
M:6/8
R:Jig
Z:As played by the CHB
K:D
AFA A gf|ede fdB|AFA AGF|GFG EFG|\
AFA A gf|ede fdB|A2g faf|edc d2A::\
afa afa|bgb bgb|afa agf|gfg efg|\
a2a f2f|ede fdB|A2g faf|edc d3:|
